public/avatar/hat/14.svg

<svg xmlns:xlink="http://www.w3.org/1999/xlink" height="92.9" width="100.7" xmlns="http://www.w3.org/2000/svg"><g transform="translate(38.65 49.75)"><use height="18.75" transform="translate(-19.1 -6.2)" width="19.35" xlink:href="#a"/><use height="18.75" transform="matrix(-1 0 0 1 18.55 -6.2)" width="19.35" xlink:href="#a"/></g><defs><use height="18.75" width="19.35" xlink:href="#b" id="a"/><g id="b"><path d="M12.65 7.2h-.2L2.5-.75h2.6L2.55-2.9l-5.7.85-2.55-2.3 8.05-1.1L8.5 0H6.45v.15l6.2 5.2V7.2" fill="#c00" fill-rule="evenodd" transform="translate(6.2 5.95)"/><path d="m-3.15-2.05 5.7-.85L5.1-.75H2.5l9.95 7.95h.2v5.1L-3.15-2.05" fill="#fff" fill-rule="evenodd" transform="translate(6.2 5.95)"/><path d="M12.65 5.35 6.45.15m0-.15H8.5L2.35-5.45l-8.05 1.1 2.55 2.3 15.8 14.35" fill="none" stroke="#000" stroke-linecap="round" stroke-linejoin="round" transform="translate(6.2 5.95)"/></g></defs></svg>

<?xml version="1.0" encoding="UTF-8" standalone="no"?>
<svg xmlns:xlink="http://www.w3.org/1999/xlink" height="92.9px" width="100.7px" xmlns="http://www.w3.org/2000/svg">
  <g transform="matrix(1.0, 0.0, 0.0, 1.0, 38.65, 49.75)">
    <use height="18.75" transform="matrix(1.0, 0.0, 0.0, 1.0, -19.1, -6.2)" width="19.35" xlink:href="#sprite0"/>
    <use height="18.75" transform="matrix(-1.0, 0.0, 0.0, 1.0, 18.55, -6.2)" width="19.35" xlink:href="#sprite0"/>
  </g>
  <defs>
    <g id="sprite0" transform="matrix(1.0, 0.0, 0.0, 1.0, 6.2, 5.95)">
      <use height="18.75" transform="matrix(1.0, 0.0, 0.0, 1.0, -6.2, -5.95)" width="19.35" xlink:href="#shape0"/>
    </g>
    <g id="shape0" transform="matrix(1.0, 0.0, 0.0, 1.0, 6.2, 5.95)">
      <path d="M12.65 7.2 L12.45 7.2 2.5 -0.75 5.1 -0.75 2.55 -2.9 -3.15 -2.05 -5.7 -4.35 2.35 -5.45 8.5 0.0 6.45 0.0 6.45 0.15 12.65 5.35 12.65 7.2" fill="#cc0000" fill-rule="evenodd" stroke="none"/>
      <path d="M-3.15 -2.05 L2.55 -2.9 5.1 -0.75 2.5 -0.75 12.45 7.2 12.65 7.2 12.65 12.3 -3.15 -2.05" fill="#ffffff" fill-rule="evenodd" stroke="none"/>
      <path d="M12.65 5.35 L6.45 0.15 M6.45 0.0 L8.5 0.0 2.35 -5.45 -5.7 -4.35 -3.15 -2.05 12.65 12.3" fill="none" stroke="#000000" stroke-linecap="round" stroke-linejoin="round" stroke-width="1.0"/>
    </g>
  </defs>
</svg>
